X: 9379
T: Dancing With Mrs. White
R: polka
M: 2/4
K: Dmajor
A|:de fd|B>c BA|de fd|af ec|
de fd|B>c BA|dF EG|1 FD DA:|2 FD DE||
|:A>B AF|FA AF/A/|B>c BA|dF EG|
A>B AF|FA AF/A/|B>c BA|1 FE DE:|2 FE DA||

